X:181
T: EIN SCHIFFLEIN ZIEHET LEISE
N: B0668
O: Europa, Mitteleuropa, Deutschland
R: Moral - Lied
M: 6/8
L: 1/8
K: Bb
F | d2cB2c | d2cB2
d | e2dc2B | A2Bc2
F | F2FF2F | d3c2
F | F2FF2F | d3c2
F | B2AG2e | d3c3 | B3z2

@@@ Tune index: 2399
